X:1
T:Sometime
T:Sometime
T:William James Kirkpatrick
T:Eliza Edmunds Hewitt, 1891
T:Public Domain Courtesy of the Cyber Hymnal™
T:Public Domain Courtesy of the Cyber Hymnal™
C:William James Kirkpatrick
Z:Public Domain
Z:Courtesy of the Cyber Hymnal™
%%score ( 1 2 ) ( 3 4 )
L:1/8
Q:1/4=105
M:4/4
K:Ab
V:1 treble 
V:2 treble 
V:3 bass 
V:4 bass 
V:1
 [CE]2 | [CE]2 [CA]2 [CA]2 [Ec]>[Ec] | [Fc]2 [FB]2 [DF]2 [FA]>[FA] | [EG]2 [=DF]2 [B,E]2 [B,D]2 | %4
w: 1.~A|voice is heard in the|dew- y dawn, And the|call is sweet and|
w: 2.~The|day is near- ing the|noon- tide glow, And the|voice is heard a-|
w: 3.~The|feet are tread- ing the|west- ern slope, And the|air is grow- ing|
w: 4.~O|soul, take heed, ere the|sha- dows fall, And the|day of grace be|
 [B,E]6 [DE]2 | [CE]2 [CA]2 [CA]2 [Ec]>[Ec] | [Fc]2 [FB]2 [DF]2 [FA]>[FA] | %7
w: low; Come|now, my child to the|Shep- herd’s fold, Where the|
w: gain, It|calls the soul to a|nob- ler life, ’Tis a|
w: chill; O|can it be God is|wait- ing yet, That His|
w: past, For|how shall a trem- bling|sin- ner stand By the|
 [EG]2 [DB]2 [DF]2 [DG]2 | [CA]6 c>c | c2 G2 A2 F>F | G2 C2 C2 ([=Ec]>[Ec]) | %11
w: liv- ing wa- ters|flow; But the|gay heart an- swers in|care- less tones, As *|
w: pa- tient, kind re-|frain; En- ter|now the Mas- ter’s broad|har- vest field, In~the *|
w: voice is plead- ing|still? That He’ll|flood with beau- ty the|sun- set sky, Bright *|
w: gates of death at|last? Hear the|Sav- ior’s call; at the|Cross lay down Thy *|
 [Fc]2 [FB]>[FB] [FA]2 [=DF]2 | B6 E>E | [CE]2 [EA]>[EA] [Ec]2 [_Ge]>[Ge] | %14
w: light as the morn- ing|chime, “Let me|live for the world just a|
w: strength of your ear- ly|prime, Come and|bring to His work serv- ice|
w: rays from the Gold- en|Clime? But the|sin- ner long har- dened, has|
w: bur- den of guilt and|crime, And the|an- gels shall sing thee a|
 [Fe]2 [Fd]2 !fermata![Fd]2 [FA]>[_FB] | [Ec]3 [CA] [DB]2 z [CA] | [CA]6 z || %17
w: lit- tle while, I will|come to God— some-|time!”|
w: good and true, Still the|same re- ply— “some-|time!”|
w: turned a- way, With the|fa- tal word— “some-|time!”|
w: sweet- er song Then the|sad re- frain “Some-|time.”|
[M:6/8]"^Refrain" [CE] | [D_F]2 [DF] [CE]2 [CE]/[CE]/ | [EA]2 [EA] [EG]2 [EG]/[FA]/ | %20
w: |||
w: |||
w: |||
w: |||
 [GB]>[GB][GB] [GB]!fermata![FA][FB] | .[=Ec]2 [Fc] .[Ec]2 (c/d/) | [Ae]2 [Af] [Ae]2 [EA]/[EB]/ | %23
w: |||
w: |||
w: |||
w: |||
 [Ac]2 [Ad] [Ac]2 [EA]/[EA]/ | [DB][DA][DF] [CE]!fermata![CA][Ec] | !fermata![DB]2 A [CA]2 |] %26
w: |||
w: |||
w: |||
w: |||
V:2
 x2 | x8 | x8 | x8 | x8 | x8 | x8 | x8 | x6 c>c | c2 G2 A2 F>F | G2 C2 C2 x2 | x8 | %12
 (E2 F2 G2) E>E | x8 | x8 | x8 | x7 ||[M:6/8] x | x6 | x6 | x6 | x5 A | x6 | x6 | x6 | %25
 x2 (C/D/) x2 |] %26
V:3
 [A,,A,]2 | [A,,A,]2 [A,,E,]2 [A,,E,]2 [A,,A,]>[A,,A,] | [D,A,]2 [D,A,]2 [D,A,]2 [D,A,]>[D,A,] | %3
w: ~|~ ~ ~ ~ ~|~ ~ ~ ~ ~|
 [B,,B,]2 [B,,A,]2 [B,,G,]2 [B,,F,]2 | [E,G,]6 [E,G,]2 | %5
w: ~ ~ ~ ~|~ ~|
 [A,,A,]2 [A,,E,]2 [A,,E,]2 [A,,A,]>[A,,A,] | [D,A,]2 [D,A,]2 [D,A,]2 [D,D]>[D,D] | %7
w: ~ ~ ~ ~ ~|~ ~ ~ ~ ~|
 [E,B,]2 [E,G,]2 [E,A,]2 [E,B,]2 | [A,,A,]6 C>C | C2 G,2 A,2 F,>F, | G,2 C,2 C,2 ([C,B,]>[C,B,]) | %11
w: ~ ~ ~ ~|~ ~ ~|~ ~ ~ ~ ~|~ ~ ~ ~ *|
 [F,A,]2 [F,D]>[F,D] [F,C]2 [F,A,]2 | (G,2 A,2 B,2) [E,G,]>[E,G,] | %13
w: ~ ~ ~ ~ ~|~ * * ~ ~|
 [A,,A,]2 [A,,C]>[A,,C] A,2 [C,A,]>[C,A,] | [D,A,]2 [D,A,]2 !fermata![D,A,]2 [D,A,]>[D,A,] | %15
w: ~ ~ ~ ~ ~ ~|~ ~ ~ ~ ~|
 [E,A,]3 [E,A,] [E,G,]2 z [A,,A,] | [A,,A,]6 z ||[M:6/8] [A,,A,] | %18
w: ~ ~ ~ ~|~|Be-|
 [D,A,]2 [D,A,] [A,,A,]2 [A,,A,]/[A,,A,]/ | [E,C]2 [E,C] [E,B,]2 [E,B,]/[E,C]/ | %20
w: ware! Be- ware! At the|pearl- y gate God may|
 [E,D]>[E,D][E,D] [E,D]!fermata![F,C][D,F,] | .[C,G,]2 [F,A,] .[C,G,]2 (A,/B,/) | %22
w: an- swer your some- time, too|late! too late! Be- *|
 [A,C]2 [A,D] [A,C]2 [A,C]/[A,D]/ | [A,E]2 [A,F] [A,E]2 [C,A,]/[C,A,]/ | %24
w: ware! Be- ware! At the|pearl- y gate God may|
 [D,F,][D,F,][D,A,] [A,,A,]!fermata![A,,A,][A,,A,] | !fermata![E,G,]2 (E,/F,/) [A,,E,]2 |] %26
w: an- swer your some- time, too|late! too * late!|
V:4
 x2 | x8 | x8 | x8 | x8 | x8 | x8 | x8 | x6 C>C | C2 G,2 A,2 F,>F, | G,2 C,2 C,2 x2 | x8 | E,6 x2 | %13
 x4 A,2 x2 | x8 | x8 | x7 ||[M:6/8] x | x6 | x6 | x6 | x5 A, | x6 | x6 | x6 | x2 A,, x2 |] %26

